X:1
T:Title
%%score { 1 | 2 }
L:1/8
M:4/4
K:E
V:1 treble nm="Grand Piano"
V:2 bass 
V:1
 z4 z2[Q:1/4=116] E2 | G2 G2 G2 A2 | [EG]2 [DF]4 [EG]2 | [FA]2 [Ac]2 [GB]2 [FA]2 | G6 E2 | %5
 G2 G2 G2 A2 | [EG]2 [DF]4 B2 | B2 ^A2 G2 A2 | [DB]6 [AB]2 | [Ad]2 [Ac]2 [B,GB]2 [B,FA]2 | %10
 [B,EG]2 [EGB]4 [EGB]2 | [EAc]2 [EAc]2 [EGB]2 [B,EG]2 | [B,DF]6 [A,DG]2 | %13
 [G,E]2 [B,DF]2 [B,EG]2 [EGB]2 | c2 e4 c2 | B2 G2 [DG]2 [DF]2 |[M:3/4] E6 |[M:1/4] EF | %18
[M:4/4] G4 [DG]2 [DF]2 | F2 E4 EG | [FB]4 [DB]2 [FA]2 |[M:3/4] [FA]2 [EG]4 |[M:1/4] [EG][GB] | %23
[M:4/4] c4 e2 c2 | [GB]2 G4 E[EF] | [EG]2 [EB]2 [DF]2 [DG]2 |[M:3/4] [B,E]6 |] %27
V:2
 z4 z2 [E,G,]2 | [E,B,E]2 [E,B,E]2 [E,B,E]2 [E,CE]2 | [B,,B,]2 [B,,B,]4 [B,,B,]2 | %3
 [B,,B,]2 [B,,B,]2 [C,B,]2 [D,B,]2 | [E,B,E]6 [E,G,]2 | [E,B,E]2 [E,B,E]2 [E,B,E]2 [E,CE]2 | %6
 [B,,B,]2 [B,,B,]4 [F,B,D]2 | [F,CE]2 [F,CE]2 [F,B,E]2 [F,CE]2 | [B,,B,]6 [B,,B,]2 | %9
 [B,,B,]2 [B,,B,]2 C,2 D,2 | E,2 E,4 E,2 | A,2 A,2 E,2 E,2 | B,,6 B,,2 | E,2 B,,2 E,2 E,2 | %14
 [A,EA]2 [A,CA]4 [A,EA]2 | [B,EG]2 [B,E]2[K:bass] [B,,B,]2 [B,,A,]2 |[M:3/4] [E,G,]6 | %17
[M:1/4] [E,G,][E,A,E] |[M:4/4] [E,B,E]4 [B,,B,]2 [B,,A,]2 | [E,A,D]2 [E,G,]4 [E,G,][E,B,E] | %20
 [D,B,]4 [B,,B,]2 [D,B,]2 |[M:3/4] [E,B,]2 [E,B,]4 |[M:1/4] [E,B,][E,E] | %23
[M:4/4][K:treble] [A,EA]4 [A,CA]2 [A,EA]2 | [E,E]2 [E,B,E]4 [C,^A,][C,A,] | %25
 [B,,B,]2 [B,,G,]2 [B,,A,]2 [B,,B,]2 |[M:3/4] [E,G,]6 |] %27

